X:1
T:Belhelvie House
Z:Jack Campin: "Embro, Embro", transcription (c) 2001
F:04places/abc/Belhelv.abc
C:William Marshall
S:Marshall book 1 p 28
R:strathspey
M:4/4
L:1/8
Q:1/4=108
K:C Minor
C |C>ccG c/c/c {d}e2|   d>cBd f/e/d/c/ Bd|   C>ccG c/c/c {d}e2 |{e}d>cBd c2 C2 |
   C>ccG c/c/c {d}e2|   d>cBd f/e/d/c/ Bd|   C>ccG c/c/c {d}e2 |{e}d>cBd c2 cd||
{d}e3g   e/e/e    e2|{e}d>cBd f/e/d/c/ Bd|{d}e3g  e/e/e    (ge)|   dBfd  c2 C2 |
{d}e3g   e/e/e    e2|{e}d>cBd f/e/d/c/ Bd|{d}e3g  dBfd         |   ecd=B c2 C |]

